icons/emoji-eyes-crossed-21.svg

<svg xmlns="http://www.w3.org/2000/svg" viewBox="0 0 21 21"><path d="M5 5.2C2.3 5.2.2 7.3.2 10c0 2.7 2.1 4.8 4.8 4.8s4.8-2.1 4.8-4.8c0-2.7-2.1-4.8-4.8-4.8zM5 14c-2.2 0-4-1.8-4-4s1.8-4 4-4 4 1.8 4 4-1.8 4-4 4z"/><path d="M16 5.2c-2.7 0-4.8 2.1-4.8 4.8 0 2.7 2.1 4.8 4.8 4.8s4.8-2.1 4.8-4.8c0-2.7-2.1-4.8-4.8-4.8zm0 8.8c-2.2 0-4-1.8-4-4s1.8-4 4-4 4 1.8 4 4-1.8 4-4 4z"/><path d="M7 9.1c-1 0-1.9.9-1.9 1.9S6 12.8 7 12.8c1 0 1.9-.8 1.9-1.8S8 9.1 7 9.1zM8 11H7v-1h1v1z"/><path d="M14 9.1c-1 0-1.9.8-1.9 1.8s.8 1.9 1.8 1.9 1.9-.8 1.9-1.8S15 9.1 14 9.1zm0 1.9h-1v-1h1v1z"/></svg>

<?xml version="1.0" encoding="utf-8"?>
<!-- Generator: Adobe Illustrator 24.2.1, SVG Export Plug-In . SVG Version: 6.00 Build 0)  -->
<svg version="1.1" id="Layer_1" xmlns="http://www.w3.org/2000/svg" xmlns:xlink="http://www.w3.org/1999/xlink" x="0px" y="0px"
	 viewBox="0 0 21 21" style="enable-background:new 0 0 21 21;" xml:space="preserve">
<path d="M5,5.2c-2.7,0-4.8,2.1-4.8,4.8c0,2.7,2.1,4.8,4.8,4.8s4.8-2.1,4.8-4.8C9.8,7.3,7.7,5.2,5,5.2z M5,14c-2.2,0-4-1.8-4-4
	c0-2.2,1.8-4,4-4s4,1.8,4,4C9,12.2,7.2,14,5,14z"/>
<path d="M16,5.2c-2.7,0-4.8,2.1-4.8,4.8c0,2.7,2.1,4.8,4.8,4.8s4.8-2.1,4.8-4.8C20.8,7.3,18.7,5.2,16,5.2z M16,14c-2.2,0-4-1.8-4-4
	c0-2.2,1.8-4,4-4s4,1.8,4,4C20,12.2,18.2,14,16,14z"/>
<path d="M7,9.1C6,9.1,5.1,10,5.1,11S6,12.8,7,12.8c1,0,1.9-0.8,1.9-1.8S8,9.1,7,9.1z M8,11H7v-1h1V11z"/>
<path d="M14,9.1c-1,0-1.9,0.8-1.9,1.8s0.8,1.9,1.8,1.9c1,0,1.9-0.8,1.9-1.8S15,9.1,14,9.1z M14,11h-1v-1h1V11z"/>
</svg>
